icon-themes/sifr_svg/cmd/sc_flowchartshapes.flowchart-manual-input.svg

<svg viewBox="0 0 16 16" xmlns="http://www.w3.org/2000/svg"><g fill="#555753"><path d="m2 6.7278506v7.2721494h12v-12 .5423729z" opacity=".35"/><path d="m15 1.1347656-14 4.8828125v.7109375 8.2714844h14zm-2 2.8164063v9.0488281h-10v-5.5625z"/></g></svg>

<svg xmlns="http://www.w3.org/2000/svg" viewBox="0 0 16 16">
  <path
     style="opacity:0.35;fill:#555753"
     d="M 2,6.7278506 V 14 H 14 V 2 2.5423729 Z"
     />
  <path
     style="fill:#555753"
     d="M 15,1.1347656 1,6.0175781 V 6.7285156 15 H 15 Z M 13,3.9511719 V 13 H 3 V 7.4375 Z"
     />
</svg>
